!!!OTL: Yijiuerwunian
!!!ARE: Asia, China,ÿHenan Xinxian
!! IV, 124
!!!SCT: C1943
!!!YEM: Copyright 1995, estate of Helmut Schaffrath.
**kern
*ICvox
*Ivox
*M2/4
*k[]
*C:
{8.a
16cc
8a
8cc
=1
8dd
4dd
16cc
16a
=2
16g
16a
16g
16e
4g}
=3
{8g
16g
16g
16a
16cc
8e
=4
16g
16a
16g
16e
4g}
=5
{16a
16cc
8e
4g
=6
8a
8ee
4dd
=7
16dd
16ee
16dd
16cc
4dd
=8
8g
8a
4g}
=9
{8.g
16e
8g
8a
=10
8g
8e
4d
=11
16e
16d
8c
4d}
=12
{4dd
4cc
=13
4dd
4cc
=14
8.dd
16cc
8dd
8cc
=15
8a
8dd
4cc}
=16
{8.g
16e
8g
8a
=17
8g
8e
4d
=18
16e
16d
8c
4d}
==
!!!AGN: Xiaodiao, Daliuwang diao
!!!AMT: simple duple
!!!AIN: vox
!!!EED: Helmut Schaffrath
!!!EEV: 1.0
*-
